X:1
T:Title
T:Étude op. 30 no 11
T:Joachim Andersen
C:Composer
L:1/8
Q:3/8=80
M:6/8
K:B
V:1 treble nm="Piano" snm="Pno."
V:1
"^Moderato"!p! .B/"_ben staccato".f/.d/.b/.f/.d'/ .e'/.g/.b/.e/.g/.B/ | %1
 .d'/.f/.b/.d/.f/.B/ .d/.F/.B/.d/.g/.f/ |!<(! .A/.c/.e/.^e/.g/.f/ .B/.d/.g/.f/.d/.b/!<)! | %3
!>(! .c/.=e/.b/.a/.B/.e/ .a/.g/.A/.c/.g/.f/!>)! |!p! .B/.f/.d/.b/.f/.d'/ .e'/.g/.b/.e/.g/.B/ | %5
 .d'/.f/.b/.d/.f/.B/ .d/.F/.B/.d/.g/.f/ |"_crescendo" .c'/.b/.d/.b/.f/.d'/ .c'/.b/.e/.b/.g/.e'/ | %7
 .b/.a/.f/.c'/.a/.f'/ .b/.f/.d/.f/!f!B ::!p! .F/.c/.A/.f/.c/.a/ .b/.=d/.g/.B/.d/.^E/ | %9
 .a/.c/.f/.A/.c/!<(!.F/ .A/.c/.f/.a/.^d'/.c'/!<)! |!mf! .b/.g/.c'/.b/.g/.c/ .a/.f/.c'/.a/.f/.c/ | %11
 .g/.^e/!>(!.c'/.^e'/.g/.c'/ .e/.g/.c/.e/.G/.c/!>)! |!p! .F/.c/.A/.f/.c/.a/ .b/.=d/.g/.B/.d/.^E/ | %13
 .a/.c/.f/.A/.c/!<(!.F/ .A/.c/.f/.a/.^d'/.c'/!<)! | %14
!mf! .f'/.a/.c'/.f/.a/"_crescendo".c/ .^B/.f/.d/.^b/.f/.^e'/ |1 %15
!f! .d'/.c'/.=b/.g/.^e/.c/ .f/.c/.A/.c/F :|2 .d'/.c'/.=b/.g/.^e/.c/!>(! .g/.f/.=e/.c/.A/.F/!>)! || %17
!p! .B/.f/.d/.b/.f/.d'/ .e'/.g/.b/.e/.g/.B/ | .d'/.f/.b/.d/.f/.B/ .d/.F/.B/.d/.g/.f/ | %19
!<(! .A/.c/.e/.^e/.g/.f/ .B/.d/!<)!.g/.f/.d/.b/ |!>(! .c/.e/.b/.a/.B/.e/ .a/.g/.A/.c/.g/.f/!>)! | %21
!p! .B/.f/.d/.b/.f/.d'/ .e'/.g/.b/.e/.g/.B/ | .d'/.f/.b/.d/.f/.B/ .d/.F/.B/.d/.g/.f/ | %23
 .c'/.b/.d/.b/.f/.d'/ .c'/.b/.e/.b/.g/.e'/ | .b/.a/.f/.c'/.a/.f'/ .e'/.d'/.b/.d'/.g | %25
 .d/.b/.f/.d'/.b/.f'/ .e/.b/.g/.e'/.b/.g'/ | .f/.f'/.g/.^e'/.a/.=e'/ .b/.d'/.^e/.^^c'/.^^f/.^c'/ | %27
 .g/.b/.c/.a/.d/.=a/ .=e/.g/.A/.^^f/.^B/.^f/ | .c/.g/.e/.c'/.g/.e'/ .=B/.g/.e/.c'/.g/.e'/ | %29
 .A/.f/.e/.c'/.f/.e'/ .B/.f/.d/.b/.f/.d'/ |!f! .^E/.B/.G/.=d/.B/.^e/ .d/.g/.e/.b/.g/.=d'/ | %31
 .F/.^d/.B/.f/.d/.b/ .B/.f/.d/.b/.f/.d'/ | .e'/.a/.c'/.f/.a/.e/ .f/.c/.e/.A/.c/.F/ | %33
 .B/.f/.d/.b/.f/.d'/ .e'/.=g/.b/.e/.g/.A/ | .B/.f/!>(!.d/.b/.f/.d'/ .e'/.=g/.b/.e/.g/.A/!>)! | %35
 .B/.f/"_dim.".d/.b/.f/.d'/ .b/.f'/.f/.d'/.d/.b/ |!p! B3- B z2 |] %37

